SVG/ico__delete.svg

<svg xmlns="http://www.w3.org/2000/svg" viewBox="0 0 240 240">
  <rect x="90" y="100" width="20" height="79.87"/>
  <rect x="130" y="100.13" width="20" height="79.87"/>
  <path d="M220,60h-51c-4.63-22.82-24.81-40-49-40s-44.36,17.18-49,40H20v20h30v140h140V80h30v-20ZM120,40c13.06,0,24.17,8.35,28.29,20h-56.57c4.12-11.65,15.23-20,28.29-20ZM170,200h-100v-120h100v120Z"/>
</svg>

<svg width="240" height="240" viewBox="0 0 240 240" fill="none" xmlns="http://www.w3.org/2000/svg">
<path d="M110 100H90V179.87H110V100Z" fill="black"/>
<path d="M150 100.13H130V180H150V100.13Z" fill="black"/>
<path d="M220 60H169C164.36 37.18 144.19 20 120 20C95.81 20 75.64 37.18 71 60H20V80H50V220H190V80H220V60ZM120 40C133.06 40 144.17 48.35 148.29 60H91.72C95.84 48.35 106.95 40 120.01 40H120ZM170 200H70V80H170V200Z" fill="black"/>
</svg>
